svgs/sharp-regular/jug-bottle.svg

<svg xmlns="http://www.w3.org/2000/svg" viewBox="0 0 640 512"><!--! Font Awesome Pro 6.4.0 by @fontawesome - https://fontawesome.com License - https://fontawesome.com/license (Commercial License) Copyright 2023 Fonticons, Inc. --><path d="M96 0H224V48h32V96H64V48H96V0zM416 512V175.1L448.3 160H575.7L640 190.1V256l-24 24 24 24v64l-24 24 24 24v64l-32 32H416zM128 176c-44.2 0-80 35.8-80 80V464H336V176H128zM0 256c0-70.7 57.3-128 128-128H336h16 32v32 16 14.1V480v32H352 336 48 32 0V480 464 256zm288-32V384H224V224h64zM448 64H576v64H448V64z"/></svg>

<svg xmlns="http://www.w3.org/2000/svg" viewBox="0 0 640 512"><!--! Font Awesome Pro 6.6.0 by @fontawesome - https://fontawesome.com License - https://fontawesome.com/license (Commercial License) Copyright 2024 Fonticons, Inc. --><path d="M96 0L224 0l0 48 32 0 0 48L64 96l0-48 32 0L96 0zM416 512l0-336.9L448.3 160l127.5 0L640 190.1l0 65.9-24 24 24 24 0 64-24 24 24 24 0 64-32 32-192 0zM128 176c-44.2 0-80 35.8-80 80l0 208 288 0 0-288-208 0zM0 256c0-70.7 57.3-128 128-128l208 0 16 0 32 0 0 32 0 16 0 14.1L384 480l0 32-32 0-16 0L48 512l-16 0L0 512l0-32 0-16L0 256zm288-32l0 160-64 0 0-160 64 0zM448 64l128 0 0 64-128 0 0-64z"/></svg>
